public/static/img/trade/update.svg

<svg width="20" height="20" viewBox="0 0 20 20" fill="none" xmlns="http://www.w3.org/2000/svg">
<g id="Frame">
<path id="Vector" d="M16.3559 15.1709C14.7759 17.1417 12.4542 18.3334 9.93591 18.3334C5.95508 18.3334 2.53591 15.3601 1.66675 11.2367L3.32091 10.8334C4.01591 14.1292 6.75175 16.5084 9.93591 16.5084C12.0076 16.5084 13.9117 15.5001 15.1776 13.8451L13.3334 11.7709H18.3334V17.3959L16.3559 15.1709ZM3.64425 4.82925C5.22425 2.85841 7.54591 1.66675 10.0642 1.66675C14.0451 1.66675 17.4642 4.64008 18.3334 8.76341L16.6792 9.16675C15.9842 5.87091 13.2484 3.49175 10.0642 3.49175C7.99258 3.49175 6.08841 4.50008 4.82258 6.15508L6.66675 8.22925H1.66675V2.60425L3.64425 4.82925Z" fill="white"/>
</g>
</svg>

<svg width="20" height="20" fill="none" xmlns="http://www.w3.org/2000/svg"><path d="M16.356 15.17c-1.58 1.972-3.902 3.163-6.42 3.163-3.98 0-7.4-2.973-8.27-7.096l1.655-.404c.695 3.296 3.43 5.675 6.615 5.675 2.072 0 3.976-1.008 5.242-2.663l-1.845-2.074h5v5.625l-1.977-2.225ZM3.644 4.83c1.58-1.972 3.902-3.163 6.42-3.163 3.981 0 7.4 2.973 8.27 7.096l-1.655.404c-.695-3.296-3.43-5.675-6.615-5.675-2.071 0-3.976 1.008-5.241 2.663L6.667 8.23h-5V2.604L3.644 4.83Z" fill="#fff"/></svg>
